X:1
T:Tjon og Von
T:16. Tjon og Von
T:Symra
T:Chr. Haslerud
T:Ivar Aasen
C:Chr. Haslerud
Z:Ivar Aasen
%%score [ 1 2 3 4 ]
L:1/8
Q:1/4=114
M:6/8
K:F
V:1 treble nm="Soprano"
V:2 treble nm="Alto"
V:3 treble-8 nm="Tenor"
V:4 bass nm="Bass"
V:1
!f!"^Raskt" C | F2 A G2 E | F2 d c z f | (fe) d (cB) A | G3 A z C | F2 A G2 E | F2 d c z A | %7
w: Det|gjeng på ber- re|Tap og Tjon, som|tidt _ det he- * ver|gjen- get; me|ha- va havt so|mang ei Von og|
 (GA) =B c2 e | d3 c z!p! c | B2 B (BA) G | A2 F c z c | B2 B (BA) G | A2 F c z!mf! c | %13
w: li- * ten Fag- nad|fen- get. Det|er no stun- * dom|so at sjaa, som|in- gen Rett _ var|meir aa faa. Kvat|
 d2 d (dc) B | A3 G z C | F2 A G2 E |!>(! F2 D!>)! C z C |!<(! (CD) E!<)! F2 A | G3 F2 |] %19
w: skal ein Sta- * kar|kve- da? D'er|ti- e Ting aa|har- mast paa og|in- * gen Ting til|Gle- da.|
V:2
!f! C | C2 F E2 C | C2 F F z A | B2 B (FE) F | E3 F z C | C2 F E2 C | C2 F F z F | F2 F G2 G | %8
w: Det|gjeng på ber- re|Tap og Tjon, som|tidt det he- * ver|gjen- get; me|ha- va havt so|mang ei Von og|li- ten Fag- nad|
 F3 E z!p! E | G2 G (GF) E | F2 F E z E | G2 G (GF) E | F2 F E z!mf! F | F2 F E2 E | (C2 D) E z C | %15
w: fen- get. Det|er no stun- * dom|so at sjaa, som|in- gen Rett _ var|meir aa faa. Kvat|skal ein Sta- kar|kve- * da? D'er|
 C2 F E2 C |!>(! C2 B,!>)! A, z A, |!<(! B,2 B,!<)! C2 F | E3 C2 |] %19
w: ti- e Ting aa|har- mast paa og|in- gen Ting til|Gle- da.|
V:3
!f! c | A2 c B2 G | A2 B A z c | f2 f c2 c | c3 c z c | A2 c B2 G | A2 B A z c | (=Bc) d e2 c | %8
w: Det|gjeng på ber- re|Tap og Tjon, som|tidt det he- ver|gjen- get; me|ha- va havt so|mang ei Von og|li- * ten Fag- nad|
 =B3 G z!p! c | c2 c c2 c | c2 A G z c | c2 c c2 c | c2 A G z!mf! c | B2 B (BA) G | (A2 =B) c z c | %15
w: fen- get. Det|er no stun- dom|so at sjaa, som|in- gen Rett var|meir aa faa. Kvat|skal ein Sta- * kar|kve- * da? D'er|
 A2 c B2 G |!>(! A2 F!>)! F z F |!<(! (EF) G!<)! A2 c | B3 A2 |] %19
w: ti- e Ting aa|har- mast paa og|in- * gen Ting til|Gle- da.|
V:4
!f! C | F,2 F, C,2 C, | F,2 F, F, z F, | (DC) B, (A,G,) F, | C,3 F, z C | F,2 F, C,2 C, | %6
w: Det|gjeng på ber- re|Tap og Tjon, som|tidt _ det he- * ver|gjen- get; me|ha- va havt so|
 F,2 F, F, z F, | G,2 G, G,2 G, | G,3 C, z!p! C, | E,2 E, F,2 C, | F,2 F, C, z C, | E,2 E, F,2 C, | %12
w: mang ei Von og|li- ten Fag- nad|fen- get. Det|er no stun- dom|so at sjaa, som|in- gen Rett var|
 F,2 F, C, z!mf! A,, | B,,2 B,, C,2 C, | F,3 C, z C | F,2 F, C,2 C, |!>(! F,2 F,!>)! F, z F, | %17
w: meir aa faa. Kvat|skal ein Sta- kar|kve- da? D'er|ti- e Ting aa|har- mast paa og|
!<(! C,2 C,!<)! C,2 C, | C,3 F,2 |] %19
w: in- gen Ting til|Gle- da.|

